server/public/images/feature-schedule.svg

<?xml version="1.0" encoding="UTF-8"?>
<svg width="48px" height="48px" viewBox="0 0 48 48" version="1.1" xmlns="http://www.w3.org/2000/svg" xmlns:xlink="http://www.w3.org/1999/xlink">
    <!-- Generator: Sketch 53 (72520) - https://sketchapp.com -->
    <title>Fly</title>
    <desc>Created with Sketch.</desc>
    <g id="Page-1" stroke="none" stroke-width="1" fill="none" fill-rule="evenodd">
        <g id="Rocket-Rides-Icons" transform="translate(-96.000000, -96.000000)" fill="#13B57D">
            <g id="Fly" transform="translate(96.000000, 96.000000)">
                <path d="M28.2527038,12 L22,12 L22,18 L23.3323798,18 C23.1576748,18.6421619 23.0486391,19.3113816 23.0129321,20 L22,20 L22,26 L23,26 L23,28 L22,28 L22,34 L23,34 L23,36 L2,36 C0.8954305,36 1.3527075e-16,35.1045695 0,34 L0,6 C-1.3527075e-16,4.8954305 0.8954305,4 2,4 L5,4 L5,1 C5,0.44771525 5.44771525,1.01453063e-16 6,0 C6.55228475,-1.01453063e-16 7,0.44771525 7,1 L7,4 L25,4 L25,1 C25,0.44771525 25.4477153,1.01453063e-16 26,0 C26.5522847,-1.01453063e-16 27,0.44771525 27,1 L27,4 L30,4 C31.1045695,4 32,4.8954305 32,6 L32,11.0129321 C30.658389,11.0824989 29.39041,11.4304017 28.2527038,12 Z M2,28 L2,34 L10,34 L10,28 L2,28 Z M2,26 L10,26 L10,20 L2,20 L2,26 Z M2,18 L10,18 L10,12 L2,12 L2,18 Z M12,12 L12,18 L20,18 L20,12 L12,12 Z M20,34 L20,28 L12,28 L12,34 L20,34 Z M12,26 L20,26 L20,20 L12,20 L12,26 Z M6,8 C6.55228475,8 7,7.55228475 7,7 L7,6 L5,6 L5,7 C5,7.55228475 5.44771525,8 6,8 Z M26,8 C26.5522847,8 27,7.55228475 27,7 L27,6 L25,6 L25,7 C25,7.55228475 25.4477153,8 26,8 Z" id="Combined-Shape" opacity="0.400000006"></path>
                <path d="M28,38 C26.8954305,38 26,37.1045695 26,36 L26,20.5 C26,16.9101491 28.9101491,14 32.5,14 C34.2464921,14 35.8321055,14.6888041 37,15.8095722 C38.1678945,14.6888041 39.7535079,14 41.5,14 C45.0898509,14 48,16.9101491 48,20.5 L48,36 C48,37.1045695 47.1045695,38 46,38 L28,38 Z M29,20 C28.4477153,20 28,20.4477153 28,21 L28,35 C28,35.5522847 28.4477153,36 29,36 C29.5522847,36 30,35.5522847 30,35 L30,21 C30,20.4477153 29.5522847,20 29,20 Z M38,20 C37.4477153,20 37,20.4477153 37,21 L37,35 C37,35.5522847 37.4477153,36 38,36 C38.5522847,36 39,35.5522847 39,35 L39,21 C39,20.4477153 38.5522847,20 38,20 Z M31.0003344,40 C32.657004,40 34,41.2665109 34,42.8288313 C34,43.2631498 33.8939545,43.6916361 33.6900822,44.0810818 L31.9212407,47.4599999 C31.6701538,47.939637 31.0543039,48.1365057 30.5457014,47.8997185 C30.3432495,47.8054641 30.1793745,47.650922 30.0794281,47.4599999 L28.3105866,44.0810818 C27.5772217,42.6801764 28.1869532,40.9838665 29.6724599,40.2922677 C30.0854245,40.1000061 30.5397872,40 31.0003344,40 Z M43.0003344,40 C44.657004,40 46,41.2665109 46,42.8288313 C46,43.2631498 45.8939545,43.6916361 45.6900822,44.0810818 L43.9212407,47.4599999 C43.6701538,47.939637 43.0543039,48.1365057 42.5457014,47.8997185 C42.3432495,47.8054641 42.1793745,47.650922 42.0794281,47.4599999 L40.3105866,44.0810818 C39.5772217,42.6801764 40.1869532,40.9838665 41.6724599,40.2922677 C42.0854245,40.1000061 42.5397872,40 43.0003344,40 Z" id="Jetpack,-with-border"></path>
            </g>
        </g>
    </g>
</svg>

<svg width="48" height="48" xmlns="http://www.w3.org/2000/svg"><g fill="#13B57D" fill-rule="evenodd"><path d="M28.253 12H22v6h1.332a9.483 9.483 0 0 0-.32 2H22v6h1v2h-1v6h1v2H2a2 2 0 0 1-2-2V6a2 2 0 0 1 2-2h3V1a1 1 0 1 1 2 0v3h18V1a1 1 0 0 1 2 0v3h3a2 2 0 0 1 2 2v5.013a9.447 9.447 0 0 0-3.747.987zM2 28v6h8v-6H2zm0-2h8v-6H2v6zm0-8h8v-6H2v6zm10-6v6h8v-6h-8zm8 22v-6h-8v6h8zm-8-8h8v-6h-8v6zM6 8a1 1 0 0 0 1-1V6H5v1a1 1 0 0 0 1 1zm20 0a1 1 0 0 0 1-1V6h-2v1a1 1 0 0 0 1 1z" opacity=".4"/><path d="M28 38a2 2 0 0 1-2-2V20.5a6.5 6.5 0 0 1 11-4.69 6.5 6.5 0 0 1 11 4.69V36a2 2 0 0 1-2 2H28zm1-18a1 1 0 0 0-1 1v14a1 1 0 0 0 2 0V21a1 1 0 0 0-1-1zm9 0a1 1 0 0 0-1 1v14a1 1 0 0 0 2 0V21a1 1 0 0 0-1-1zm-7 20c1.657 0 3 1.267 3 2.829 0 .434-.106.863-.31 1.252l-1.769 3.379c-.25.48-.867.677-1.375.44a1 1 0 0 1-.467-.44l-1.768-3.379c-.734-1.4-.124-3.097 1.361-3.789A3.15 3.15 0 0 1 31 40zm12 0c1.657 0 3 1.267 3 2.829 0 .434-.106.863-.31 1.252l-1.769 3.379c-.25.48-.867.677-1.375.44a1 1 0 0 1-.467-.44l-1.768-3.379c-.734-1.4-.124-3.097 1.361-3.789A3.15 3.15 0 0 1 43 40z"/></g></svg>
